X: 3
T: Fletch Taylor
R: three-two
M: 3/2
L: 1/8
K: Dmaj
affe d2fe|dBBA dBBA|F2BA FEE2|
affe d2fe|dBBA dBBA|F2BA FEE2||
DEFA B2AF|BEE2 DEFA|dBBA FEE2|
DEFA B2AF|BEE2 dBBA|F2BA FEE2||

